X:59
%%etbk:tnset id:212,pos:2,rep:3x,ant:
%%etbk:tnset id:255,pos:1,rep:3x,ant:
%%etbk:wsite http://www.thesession.org/tunes/display/1040
%%etbk:video src:ytube,cde:-uwRI0sXSoU,desc:second tune
%%etbk:pldat 2016-07-07T16:09,2016-03-02T15:49,2016-03-01T17:56,2016-02-29T18:18,2016-02-27T13:17,2016-02-22T18:08,2016-02-04T19:23,2016-02-03T16:35,2016-02-02T17:32,2016-02-01T18:48,2016-01-30T13:40,2016-01-26T16:44,2016-01-21T18:31,2016-01-20T16:53,2016-01-17T13:31,2015-11-20T17:23,2015-11-18T17:02,2015-11-17T17:00,2015-11-15T15:11,2015-11-11T15:22,2015-11-10T15:23,2015-09-10T16:35,2015-09-03T16:49,2015-09-02T16:51,2015-09-01T16:38,2015-08-31T18:59,2015-08-30T14:55,2015-08-26T16:02,2015-08-06T18:06,2015-08-05T16:37,2015-08-04T17:06,2015-08-03T18:37,2015-08-02T10:24,2015-07-30T17:49,2015-07-22T16:13,2015-06-26T17:15,2015-06-17T15:34,2015-05-27T18:33,2015-04-16T19:26,2015-04-15T16:52,2015-04-13T19:06,2015-04-12T11:35,2015-04-11T14:48,2015-03-24T16:51,2015-03-16T19:44,2015-03-15T14:28,2015-03-11T16:15,2015-02-22T16:36,2015-02-19T19:22,2015-02-17T16:44,2015-02-12T18:40,2015-01-28T16:23,2015-01-14T17:44,2015-01-13T15:58,2015-01-10T15:13,2015-01-10T15:07,2015-01-06T19:15,2014-12-27T14:29,2014-12-17T18:46,2014-12-13T16:27,2014-11-30T14:31,2014-10-15T18:58,2014-10-12T13:54,2014-09-14T10:52,2014-08-14T19:31,2014-08-13T19:48,2014-08-12T19:18,2014-08-11T19:37,2014-08-10T11:55,2014-08-03T16:47,2014-08-02T15:49,2014-07-28T19:36,2014-07-22T19:19,2014-07-05T13:37,2014-06-20T16:23,2014-06-19T19:35,2014-06-17T19:08,2014-06-15T13:06,2014-06-07T15:24,2014-05-04T10:43,2014-04-27T12:36,2014-04-24T19:55,2014-04-23T17:25,2014-04-22T19:46,2014-04-21T14:55,2014-04-18T12:20,2014-04-08T17:17,2014-04-06T11:44,2014-04-02T16:36,2014-03-06T19:02,2014-03-02T15:35,2014-02-26T17:46,2014-02-25T18:58,2014-02-18T18:12,2014-02-10T18:08,2014-02-09T13:45,2014-02-08T13:45,2014-01-30T18:56,2014-01-29T17:18,2014-01-28T17:28,2014-01-27T18:53,2014-01-26T15:39,2014-01-20T18:54,2014-01-19T14:18,2014-01-18T16:45,2014-01-17T17:38,2014-01-16T19:09,2014-01-13T19:07,2014-01-12T15:05,2014-01-03T16:03,2014-01-02T11:39,2013-12-28T12:57,2013-12-26T14:41,2013-12-17T16:02,2013-12-15T16:41,2013-11-27T18:39,2013-11-12T18:20,2013-11-10T14:51,2013-11-09T14:51,2013-11-07T15:52,2013-10-04T16:57,2013-10-01T18:08,2013-05-15T17:05,2013-05-12T19:19,2013-05-07T19:11
T: Sheila Coyle's
Z: Piano Box Version by Martin Fleischmann
H: Created 2013-02-19 /  Last Modified 2013-02-19
M: 4/4
L: 1/8
R: Reel
K: Dmaj
!2!"D"F!4!A!3!A!4!A !2!F!4!A!1!D!2!F|!4!A!1!D!2!F!4!A !5!B!4!A!2!F!4!A|!1!"G"G!2!B {!4!d}!2!B!1!A !2!B!1!B!2!B!4!d|!1!"A"A!2!B!3!d!5!f !4!e!3!d!2!B!1!A|
!2!"D"F!4!A!3!A!4!A !2!F!4!A!1!D!2!F|!4!A!1!D!2!F!4!A !5!B!4!A!2!F!4!A|!1!"G"G!2!B !2!B{!4!d}!2!B !1!"D"A!2!F !2!F{!4!A}!2!F|!1!"A"E!2!F!3!G!1!E !2!"D"F!1!D!1!D2:|
|:!5!"D"d!3!f{!4!g}!3!f!2!e !3!f!4!g!3!f!2!e|(!1!dd)!4!d!2!B {!4!d}!2!B!1!A!2!F!1!A|!2!"A"B!3!c!2!c!3!c !5!e!3!c!1!A!3!c|!2!B!1!A!2!G!4!B !3!"D"A!1!D!2!F!3!A|
!5!"D"d!3!f{!4!g}!3!f!2!e !3!f!4!g!3!f!2!e|!1!d!3!c!4!d!2!B {!4!d}!2!B!1!A!2!F!1!A|!1!"G"G!2!B !2!B{!4!d}!2!B !1!"D"A!2!F !2!F{!4!A}!2!F|!1!"A"E!2!F!3!G!1!E !2!"D"F!1!D!1!D2:|


